elementary-add/apps/48/vmware-netcfg.svg

<?xml version="1.0" encoding="UTF-8" standalone="no"?>
<!-- Created with Inkscape (http://www.inkscape.org/) -->

<svg
   xmlns:dc="http://purl.org/dc/elements/1.1/"
   xmlns:cc="http://creativecommons.org/ns#"
   xmlns:rdf="http://www.w3.org/1999/02/22-rdf-syntax-ns#"
   xmlns:svg="http://www.w3.org/2000/svg"
   xmlns="http://www.w3.org/2000/svg"
   xmlns:sodipodi="http://sodipodi.sourceforge.net/DTD/sodipodi-0.dtd"
   xmlns:inkscape="http://www.inkscape.org/namespaces/inkscape"
   id="svg3143"
   height="48"
   width="48"
   version="1.1"
   inkscape:version="0.91 r13725"
   sodipodi:docname="vmware-netcfg.svg">
  <sodipodi:namedview
     pagecolor="#ffffff"
     bordercolor="#666666"
     borderopacity="1"
     objecttolerance="10"
     gridtolerance="10"
     guidetolerance="10"
     inkscape:pageopacity="0"
     inkscape:pageshadow="2"
     inkscape:window-width="1535"
     inkscape:window-height="876"
     id="namedview50"
     showgrid="false"
     inkscape:zoom="6.4980192"
     inkscape:cx="26.90202"
     inkscape:cy="24"
     inkscape:window-x="65"
     inkscape:window-y="24"
     inkscape:window-maximized="1"
     inkscape:current-layer="svg3143" />
  <defs
     id="defs3145">
    <radialGradient
       id="radialGradient3030"
       gradientUnits="userSpaceOnUse"
       cy="43.5"
       cx="4.993"
       gradientTransform="matrix(2.0038 0 0 1.4 27.988 -17.4)"
       r="2.5">
      <stop
         id="stop2883"
         stop-color="#181818"
         offset="0" />
      <stop
         id="stop2885"
         stop-color="#181818"
         stop-opacity="0"
         offset="1" />
    </radialGradient>
    <radialGradient
       id="radialGradient3032"
       gradientUnits="userSpaceOnUse"
       cy="43.5"
       cx="4.993"
       gradientTransform="matrix(2.0038 0 0 1.4 -20.012 -104.4)"
       r="2.5">
      <stop
         id="stop2889"
         stop-color="#181818"
         offset="0" />
      <stop
         id="stop2891"
         stop-color="#181818"
         stop-opacity="0"
         offset="1" />
    </radialGradient>
    <linearGradient
       id="linearGradient3034"
       y2="39.999"
       gradientUnits="userSpaceOnUse"
       x2="25.058"
       y1="47.028"
       x1="25.058">
      <stop
         id="stop2895"
         stop-color="#181818"
         stop-opacity="0"
         offset="0" />
      <stop
         id="stop2897"
         stop-color="#181818"
         offset=".5" />
      <stop
         id="stop2899"
         stop-color="#181818"
         stop-opacity="0"
         offset="1" />
    </linearGradient>
    <linearGradient
       id="linearGradient3044"
       y2="43"
       gradientUnits="userSpaceOnUse"
       x2="24"
       gradientTransform="translate(5.3e-6,1)"
       y1="5"
       x1="24">
      <stop
         id="stop3926-7"
         stop-color="#fff"
         offset="0" />
      <stop
         id="stop3928-3"
         stop-color="#fff"
         stop-opacity=".23529"
         offset=".063165" />
      <stop
         id="stop3930-7"
         stop-color="#fff"
         stop-opacity=".15686"
         offset=".95056" />
      <stop
         id="stop3932-1"
         stop-color="#fff"
         stop-opacity=".39216"
         offset="1" />
    </linearGradient>
    <radialGradient
       id="radialGradient3053"
       gradientUnits="userSpaceOnUse"
       cy="9.9941"
       cx="8.2761"
       gradientTransform="matrix(0,6.6678,-8.1859,0,105.88,-59.463)"
       r="12.672">
      <stop
         id="stop3244"
         stop-color="#7ec1f8"
         offset="0" />
      <stop
         id="stop3246"
         stop-color="#4f97e3"
         offset=".26238" />
      <stop
         id="stop3248"
         stop-color="#2674c6"
         offset=".66094" />
      <stop
         id="stop3250"
         stop-color="#0b4169"
         offset="1" />
    </radialGradient>
    <clipPath
       id="clipPath-929888831">
      <g
         id="g17"
         transform="translate(0 -1004.4)">
        <path
           id="path19"
           d="m-24 13c0 1.105-0.672 2-1.5 2s-1.5-0.895-1.5-2 0.672-2 1.5-2 1.5 0.895 1.5 2z"
           transform="matrix(15.333 0 0 11.5 415 878.86)"
           fill="#1890d0" />
      </g>
    </clipPath>
  </defs>
  <metadata
     id="metadata3148">
    <rdf:RDF>
      <cc:Work
         rdf:about="">
        <dc:format>image/svg+xml</dc:format>
        <dc:type
           rdf:resource="http://purl.org/dc/dcmitype/StillImage" />
        <dc:title />
      </cc:Work>
    </rdf:RDF>
  </metadata>
  <g
     id="g4224"
     fill="#ffc239"
     transform="matrix(1.0826 0 0 -1.0785 -1.975 50.826)">
    <g
       id="g4226"
       fill="#ffc239"
       clip-path="url(#clipPath-929888831)">
      <!-- color: #dfdfdf -->
    </g>
  </g>
  <g
     id="g4232"
     fill="#ffc239"
     transform="matrix(-1.0826 0 0 -1.0785 49.975 50.826)">
    <g
       id="g4234"
       fill="#ffc239"
       clip-path="url(#clipPath-929888831)">
      <!-- color: #dfdfdf -->
    </g>
  </g>
  <g
     id="g4294"
     stroke-linejoin="round"
     opacity=".15"
     transform="matrix(.99936 0 0 .99553 .022037 .46841)"
     stroke="#fff"
     stroke-linecap="round"
     stroke-width="1.8509"
     fill="none">
    <g
       id="g4296"
       transform="matrix(1.0833 0 0 1.0833 -2 -1.3)">
      <g
         id="g4298"
         stroke-linejoin="round"
         clip-path="url(#clipPath-929888831)"
         stroke="#fff"
         stroke-linecap="round"
         stroke-width="1.8509"
         fill="none">
        <!-- color: #dfdfdf -->
      </g>
    </g>
    <g
       id="g4304"
       transform="matrix(1.0833 0 0 -1.0833 -1.9983 50.583)">
      <g
         id="g4306"
         stroke-linejoin="round"
         clip-path="url(#clipPath-929888831)"
         stroke="#fff"
         stroke-linecap="round"
         stroke-width="1.8509"
         fill="none">
        <!-- color: #dfdfdf -->
      </g>
    </g>
    <g
       id="g4310"
       transform="matrix(-1.0833 0 0 -1.0833 49.985 50.583)">
      <g
         id="g4312"
         stroke-linejoin="round"
         clip-path="url(#clipPath-929888831)"
         stroke="#fff"
         stroke-linecap="round"
         stroke-width="1.8509"
         fill="none">
        <!-- color: #dfdfdf -->
      </g>
    </g>
  </g>
  <g
     id="g4177"
     transform="translate(0,-1)">
    <rect
       x="4.5"
       y="5.5"
       width="39"
       height="39"
       ry="2"
       rx="2"
       style="color:#000000;fill:url(#radialGradient3053)"
       id="rect5505-21" />
    <path
       style="color:#000000;display:inline;overflow:visible;visibility:visible;opacity:0.15;fill:none;fill-opacity:1;fill-rule:nonzero;stroke:#000000;stroke-width:2;stroke-linecap:round;stroke-linejoin:round;stroke-miterlimit:4;stroke-dasharray:none;stroke-opacity:1;marker:none;enable-background:accumulate"
       id="path4242"
       inkscape:connector-curvature="0"
       d="m 18,12 0,10 4,0 0,2 -14.0000002,0 0,2 L 14,26 l 0,2 -4,0 0,10 12,0 0,-10 -4,0 0,-2 12,0 0,2 -4,0 0,10 12,0 0,-10 -4,0 0,-2 6,0 0,-2 -14,0 0,-2 4,0 0,-10 z m 2,2 8,0 0,6 -8,0 z m -8,16 8,0 0,6 -8,0 z m 16,0 8,0 0,6 -8,0 z" />
    <rect
       x="5.5"
       y="6.5"
       width="37"
       height="37"
       ry="1"
       rx="1"
       id="rect6741-2"
       style="opacity:0.5;fill:none;stroke:url(#linearGradient3044);stroke-linecap:round;stroke-linejoin:round" />
    <rect
       x="4.5"
       y="5.5"
       width="39"
       height="39"
       ry="2"
       rx="2"
       style="color:#000000;opacity:0.4;fill:none;stroke:#001841;stroke-linecap:round;stroke-linejoin:round"
       id="rect5505-21-1" />
    <path
       d="m 18,12 0,10 4,0 0,2 -14.0000002,0 0,2 L 14,26 l 0,2 -4,0 0,10 12,0 0,-10 -4,0 0,-2 12,0 0,2 -4,0 0,10 12,0 0,-10 -4,0 0,-2 6,0 0,-2 -14,0 0,-2 4,0 0,-10 z m 2,2 8,0 0,6 -8,0 z m -8,16 8,0 0,6 -8,0 z m 16,0 8,0 0,6 -8,0 z"
       inkscape:connector-curvature="0"
       id="path4244"
       style="color:#000000;display:inline;overflow:visible;visibility:visible;opacity:0.15;fill:none;fill-opacity:1;fill-rule:nonzero;stroke:#000000;stroke-width:1;stroke-linecap:round;stroke-linejoin:round;stroke-miterlimit:4;stroke-dasharray:none;stroke-opacity:1;marker:none;enable-background:accumulate" />
    <path
       d="m 18,12 0,10 4,0 0,2 -14.0000002,0 0,2 L 14,26 l 0,2 -4,0 0,10 12,0 0,-10 -4,0 0,-2 12,0 0,2 -4,0 0,10 12,0 0,-10 -4,0 0,-2 6,0 0,-2 -14,0 0,-2 4,0 0,-10 z m 2,2 8,0 0,6 -8,0 z m -8,16 8,0 0,6 -8,0 z m 16,0 8,0 0,6 -8,0 z"
       inkscape:connector-curvature="0"
       id="rect2986"
       style="color:#000000;display:inline;overflow:visible;visibility:visible;fill:#ffc132;fill-opacity:1;fill-rule:nonzero;stroke:none;stroke-width:1;marker:none;enable-background:accumulate" />
    <path
       id="path4237"
       d="m 18,12 0,10 4,0 0,2 -14,0 0,2 6,0 0,2 -4,0 0,10 12,0 0,-10 -4,0 0,-2 12,0 0,2 -4,0 0,10 12,0 0,-10 -4,0 0,-2 6,0 0,-2 -14,0 0,-2 4,0 0,-10 -12,0 z m 1,1 1,0 a 1.0001,1.0001 0 0 0 -1,1 l 0,-1 z m 9,0 1,0 0,1 a 1.0001,1.0001 0 0 0 -1,-1 z m -8,1 8,0 0,6 -8,0 0,-6 z m -1,6 a 1.0001,1.0001 0 0 0 1,1 l -1,0 0,-1 z m 10,0 0,1 -1,0 a 1.0001,1.0001 0 0 0 1,-1 z m -7,1 4,0 a 1.0001,1.0001 0 0 0 -1,1 l 0,2 a 1.0001,1.0001 0 0 0 1,1 l -4,0 a 1.0001,1.0001 0 0 0 1,-1 l 0,-2 a 1.0001,1.0001 0 0 0 -1,-1 z m -8,4 4,0 a 1.0001,1.0001 0 0 0 -1,1 l 0,2 a 1.0001,1.0001 0 0 0 1,1 l -4,0 a 1.0001,1.0001 0 0 0 1,-1 l 0,-2 a 1.0001,1.0001 0 0 0 -1,-1 z m 16,0 4,0 a 1.0001,1.0001 0 0 0 -1,1 l 0,2 a 1.0001,1.0001 0 0 0 1,1 l -4,0 a 1.0001,1.0001 0 0 0 1,-1 l 0,-2 a 1.0001,1.0001 0 0 0 -1,-1 z m -19,4 1,0 a 1.0001,1.0001 0 0 0 -1,1 l 0,-1 z m 9,0 1,0 0,1 a 1.0001,1.0001 0 0 0 -1,-1 z m 7,0 1,0 a 1.0001,1.0001 0 0 0 -1,1 l 0,-1 z m 9,0 1,0 0,1 a 1.0001,1.0001 0 0 0 -1,-1 z m -24,1 8,0 0,6 -8,0 0,-6 z m 16,0 8,0 0,6 -8,0 0,-6 z m -17,6 a 1.0001,1.0001 0 0 0 1,1 l -1,0 0,-1 z m 10,0 0,1 -1,0 a 1.0001,1.0001 0 0 0 1,-1 z m 6,0 a 1.0001,1.0001 0 0 0 1,1 l -1,0 0,-1 z m 10,0 0,1 -1,0 a 1.0001,1.0001 0 0 0 1,-1 z"
       style="color:#000000;font-style:normal;font-variant:normal;font-weight:normal;font-stretch:normal;font-size:medium;line-height:normal;font-family:sans-serif;text-indent:0;text-align:start;text-decoration:none;text-decoration-line:none;text-decoration-style:solid;text-decoration-color:#000000;letter-spacing:normal;word-spacing:normal;text-transform:none;direction:ltr;block-progression:tb;writing-mode:lr-tb;baseline-shift:baseline;text-anchor:start;white-space:normal;clip-rule:nonzero;display:inline;overflow:visible;visibility:visible;opacity:0.15;isolation:auto;mix-blend-mode:normal;color-interpolation:sRGB;color-interpolation-filters:linearRGB;solid-color:#000000;solid-opacity:1;fill:#ffffff;fill-opacity:1;fill-rule:nonzero;stroke:none;stroke-width:2;stroke-linecap:round;stroke-linejoin:round;stroke-miterlimit:4;stroke-dasharray:none;stroke-dashoffset:0;stroke-opacity:1;marker:none;color-rendering:auto;image-rendering:auto;shape-rendering:auto;text-rendering:auto;enable-background:accumulate"
       inkscape:connector-curvature="0" />
  </g>
</svg>

<?xml version="1.0" encoding="UTF-8" standalone="no"?>
<!-- Created with Inkscape (http://www.inkscape.org/) -->

<svg
   xmlns:dc="http://purl.org/dc/elements/1.1/"
   xmlns:cc="http://creativecommons.org/ns#"
   xmlns:rdf="http://www.w3.org/1999/02/22-rdf-syntax-ns#"
   xmlns:svg="http://www.w3.org/2000/svg"
   xmlns="http://www.w3.org/2000/svg"
   xmlns:sodipodi="http://sodipodi.sourceforge.net/DTD/sodipodi-0.dtd"
   xmlns:inkscape="http://www.inkscape.org/namespaces/inkscape"
   id="svg3143"
   height="48"
   width="48"
   version="1.1"
   inkscape:version="0.91 r13725"
   sodipodi:docname="vmware-netcfg.svg">
  <sodipodi:namedview
     pagecolor="#ffffff"
     bordercolor="#666666"
     borderopacity="1"
     objecttolerance="10"
     gridtolerance="10"
     guidetolerance="10"
     inkscape:pageopacity="0"
     inkscape:pageshadow="2"
     inkscape:window-width="1551"
     inkscape:window-height="876"
     id="namedview50"
     showgrid="false"
     inkscape:zoom="1"
     inkscape:cx="-7.1186441"
     inkscape:cy="24"
     inkscape:window-x="49"
     inkscape:window-y="24"
     inkscape:window-maximized="1"
     inkscape:current-layer="svg3143" />
  <defs
     id="defs3145">
    <radialGradient
       id="radialGradient3030"
       gradientUnits="userSpaceOnUse"
       cy="43.5"
       cx="4.993"
       gradientTransform="matrix(2.0038 0 0 1.4 27.988 -17.4)"
       r="2.5">
      <stop
         id="stop2883"
         stop-color="#181818"
         offset="0" />
      <stop
         id="stop2885"
         stop-color="#181818"
         stop-opacity="0"
         offset="1" />
    </radialGradient>
    <radialGradient
       id="radialGradient3032"
       gradientUnits="userSpaceOnUse"
       cy="43.5"
       cx="4.993"
       gradientTransform="matrix(2.0038 0 0 1.4 -20.012 -104.4)"
       r="2.5">
      <stop
         id="stop2889"
         stop-color="#181818"
         offset="0" />
      <stop
         id="stop2891"
         stop-color="#181818"
         stop-opacity="0"
         offset="1" />
    </radialGradient>
    <linearGradient
       id="linearGradient3034"
       y2="39.999"
       gradientUnits="userSpaceOnUse"
       x2="25.058"
       y1="47.028"
       x1="25.058">
      <stop
         id="stop2895"
         stop-color="#181818"
         stop-opacity="0"
         offset="0" />
      <stop
         id="stop2897"
         stop-color="#181818"
         offset=".5" />
      <stop
         id="stop2899"
         stop-color="#181818"
         stop-opacity="0"
         offset="1" />
    </linearGradient>
    <linearGradient
       id="linearGradient3044"
       y2="43"
       gradientUnits="userSpaceOnUse"
       x2="24"
       gradientTransform="translate(.0000053 1)"
       y1="5"
       x1="24">
      <stop
         id="stop3926-7"
         stop-color="#fff"
         offset="0" />
      <stop
         id="stop3928-3"
         stop-color="#fff"
         stop-opacity=".23529"
         offset=".063165" />
      <stop
         id="stop3930-7"
         stop-color="#fff"
         stop-opacity=".15686"
         offset=".95056" />
      <stop
         id="stop3932-1"
         stop-color="#fff"
         stop-opacity=".39216"
         offset="1" />
    </linearGradient>
    <radialGradient
       id="radialGradient3053"
       gradientUnits="userSpaceOnUse"
       cy="9.9941"
       cx="8.2761"
       gradientTransform="matrix(0 6.6678 -8.1859 0 105.88 -59.463)"
       r="12.672">
      <stop
         id="stop3244"
         stop-color="#7ec1f8"
         offset="0" />
      <stop
         id="stop3246"
         stop-color="#4f97e3"
         offset=".26238" />
      <stop
         id="stop3248"
         stop-color="#2674c6"
         offset=".66094" />
      <stop
         id="stop3250"
         stop-color="#0b4169"
         offset="1" />
    </radialGradient>
    <clipPath
       id="clipPath-929888831">
      <g
         id="g17"
         transform="translate(0 -1004.4)">
        <path
           id="path19"
           d="m-24 13c0 1.105-0.672 2-1.5 2s-1.5-0.895-1.5-2 0.672-2 1.5-2 1.5 0.895 1.5 2z"
           transform="matrix(15.333 0 0 11.5 415 878.86)"
           fill="#1890d0" />
      </g>
    </clipPath>
  </defs>
  <metadata
     id="metadata3148">
    <rdf:RDF>
      <cc:Work
         rdf:about="">
        <dc:format>image/svg+xml</dc:format>
        <dc:type
           rdf:resource="http://purl.org/dc/dcmitype/StillImage" />
        <dc:title></dc:title>
      </cc:Work>
    </rdf:RDF>
  </metadata>
  <g
     id="g3712-5"
     opacity=".6"
     transform="matrix(1.1579 0 0 .64286 -3.7895 16.036)">
    <rect
       id="rect2801-3"
       height="7"
       width="5"
       y="40"
       x="38"
       fill="url(#radialGradient3030)" />
    <rect
       id="rect3696-6"
       transform="scale(-1)"
       height="7"
       width="5"
       y="-47"
       x="-10"
       fill="url(#radialGradient3032)" />
    <rect
       id="rect3700-4"
       height="7"
       width="28"
       y="40"
       x="10"
       fill="url(#linearGradient3034)" />
  </g>
  <rect
     id="rect5505-21"
     style="color:#000000"
     rx="2"
     ry="2"
     height="39"
     width="39"
     y="5.5"
     x="4.5"
     fill="url(#radialGradient3053)" />
  <path
     d="m 18,12 0,10 4,0 0,2 -14.0000002,0 0,2 L 14,26 l 0,2 -4,0 0,10 12,0 0,-10 -4,0 0,-2 12,0 0,2 -4,0 0,10 12,0 0,-10 -4,0 0,-2 6,0 0,-2 -14,0 0,-2 4,0 0,-10 z m 2,2 8,0 0,6 -8,0 z m -8,16 8,0 0,6 -8,0 z m 16,0 8,0 0,6 -8,0 z"
     inkscape:connector-curvature="0"
     id="path4242"
     style="color:#000000;display:inline;overflow:visible;visibility:visible;fill:none;fill-opacity:1;fill-rule:nonzero;stroke:#000000;stroke-width:2;marker:none;enable-background:accumulate;stroke-opacity:1;stroke-miterlimit:4;stroke-dasharray:none;stroke-linejoin:round;stroke-linecap:round;opacity:0.15" />
  <rect
     id="rect6741-2"
     opacity=".5"
     stroke-linejoin="round"
     rx="1"
     ry="1"
     height="37"
     width="37"
     stroke="url(#linearGradient3044)"
     stroke-linecap="round"
     y="6.5"
     x="5.5"
     fill="none" />
  <rect
     id="rect5505-21-1"
     opacity=".4"
     stroke-linejoin="round"
     style="color:#000000"
     rx="2"
     ry="2"
     height="39"
     width="39"
     stroke="#001841"
     stroke-linecap="round"
     y="5.5"
     x="4.5"
     fill="none" />
  <g
     id="g4224"
     fill="#ffc239"
     transform="matrix(1.0826 0 0 -1.0785 -1.975 50.826)">
    <g
       id="g4226"
       fill="#ffc239"
       clip-path="url(#clipPath-929888831)">
      <!-- color: #dfdfdf -->
    </g>
  </g>
  <g
     id="g4232"
     fill="#ffc239"
     transform="matrix(-1.0826 0 0 -1.0785 49.975 50.826)">
    <g
       id="g4234"
       fill="#ffc239"
       clip-path="url(#clipPath-929888831)">
      <!-- color: #dfdfdf -->
    </g>
  </g>
  <g
     id="g4294"
     stroke-linejoin="round"
     opacity=".15"
     transform="matrix(.99936 0 0 .99553 .022037 .46841)"
     stroke="#fff"
     stroke-linecap="round"
     stroke-width="1.8509"
     fill="none">
    <g
       id="g4296"
       transform="matrix(1.0833 0 0 1.0833 -2 -1.3)">
      <g
         id="g4298"
         stroke-linejoin="round"
         clip-path="url(#clipPath-929888831)"
         stroke="#fff"
         stroke-linecap="round"
         stroke-width="1.8509"
         fill="none">
        <!-- color: #dfdfdf -->
      </g>
    </g>
    <g
       id="g4304"
       transform="matrix(1.0833 0 0 -1.0833 -1.9983 50.583)">
      <g
         id="g4306"
         stroke-linejoin="round"
         clip-path="url(#clipPath-929888831)"
         stroke="#fff"
         stroke-linecap="round"
         stroke-width="1.8509"
         fill="none">
        <!-- color: #dfdfdf -->
      </g>
    </g>
    <g
       id="g4310"
       transform="matrix(-1.0833 0 0 -1.0833 49.985 50.583)">
      <g
         id="g4312"
         stroke-linejoin="round"
         clip-path="url(#clipPath-929888831)"
         stroke="#fff"
         stroke-linecap="round"
         stroke-width="1.8509"
         fill="none">
        <!-- color: #dfdfdf -->
      </g>
    </g>
  </g>
  <path
     style="color:#000000;display:inline;overflow:visible;visibility:visible;fill:none;fill-opacity:1;fill-rule:nonzero;stroke:#000000;stroke-width:1;marker:none;enable-background:accumulate;stroke-opacity:1;stroke-miterlimit:4;stroke-dasharray:none;stroke-linejoin:round;stroke-linecap:round;opacity:0.15"
     id="path4244"
     inkscape:connector-curvature="0"
     d="m 18,12 0,10 4,0 0,2 -14.0000002,0 0,2 L 14,26 l 0,2 -4,0 0,10 12,0 0,-10 -4,0 0,-2 12,0 0,2 -4,0 0,10 12,0 0,-10 -4,0 0,-2 6,0 0,-2 -14,0 0,-2 4,0 0,-10 z m 2,2 8,0 0,6 -8,0 z m -8,16 8,0 0,6 -8,0 z m 16,0 8,0 0,6 -8,0 z" />
  <path
     style="color:#000000;display:inline;overflow:visible;visibility:visible;fill:#ffc132;fill-opacity:1;fill-rule:nonzero;stroke:none;stroke-width:1;marker:none;enable-background:accumulate"
     id="rect2986"
     inkscape:connector-curvature="0"
     d="m 18,12 0,10 4,0 0,2 -14.0000002,0 0,2 L 14,26 l 0,2 -4,0 0,10 12,0 0,-10 -4,0 0,-2 12,0 0,2 -4,0 0,10 12,0 0,-10 -4,0 0,-2 6,0 0,-2 -14,0 0,-2 4,0 0,-10 z m 2,2 8,0 0,6 -8,0 z m -8,16 8,0 0,6 -8,0 z m 16,0 8,0 0,6 -8,0 z" />
  <path
     style="color:#000000;font-style:normal;font-variant:normal;font-weight:normal;font-stretch:normal;font-size:medium;line-height:normal;font-family:sans-serif;text-indent:0;text-align:start;text-decoration:none;text-decoration-line:none;text-decoration-style:solid;text-decoration-color:#000000;letter-spacing:normal;word-spacing:normal;text-transform:none;direction:ltr;block-progression:tb;writing-mode:lr-tb;baseline-shift:baseline;text-anchor:start;white-space:normal;clip-rule:nonzero;display:inline;overflow:visible;visibility:visible;opacity:0.15;isolation:auto;mix-blend-mode:normal;color-interpolation:sRGB;color-interpolation-filters:linearRGB;solid-color:#000000;solid-opacity:1;fill:#ffffff;fill-opacity:1;fill-rule:nonzero;stroke:none;stroke-width:2;stroke-linecap:round;stroke-linejoin:round;stroke-miterlimit:4;stroke-dasharray:none;stroke-dashoffset:0;stroke-opacity:1;marker:none;color-rendering:auto;image-rendering:auto;shape-rendering:auto;text-rendering:auto;enable-background:accumulate"
     d="M 18 12 L 18 22 L 22 22 L 22 24 L 8 24 L 8 26 L 14 26 L 14 28 L 10 28 L 10 38 L 22 38 L 22 28 L 18 28 L 18 26 L 30 26 L 30 28 L 26 28 L 26 38 L 38 38 L 38 28 L 34 28 L 34 26 L 40 26 L 40 24 L 26 24 L 26 22 L 30 22 L 30 12 L 18 12 z M 19 13 L 20 13 A 1.0001 1.0001 0 0 0 19 14 L 19 13 z M 28 13 L 29 13 L 29 14 A 1.0001 1.0001 0 0 0 28 13 z M 20 14 L 28 14 L 28 20 L 20 20 L 20 14 z M 19 20 A 1.0001 1.0001 0 0 0 20 21 L 19 21 L 19 20 z M 29 20 L 29 21 L 28 21 A 1.0001 1.0001 0 0 0 29 20 z M 22 21 L 26 21 A 1.0001 1.0001 0 0 0 25 22 L 25 24 A 1.0001 1.0001 0 0 0 26 25 L 22 25 A 1.0001 1.0001 0 0 0 23 24 L 23 22 A 1.0001 1.0001 0 0 0 22 21 z M 14 25 L 18 25 A 1.0001 1.0001 0 0 0 17 26 L 17 28 A 1.0001 1.0001 0 0 0 18 29 L 14 29 A 1.0001 1.0001 0 0 0 15 28 L 15 26 A 1.0001 1.0001 0 0 0 14 25 z M 30 25 L 34 25 A 1.0001 1.0001 0 0 0 33 26 L 33 28 A 1.0001 1.0001 0 0 0 34 29 L 30 29 A 1.0001 1.0001 0 0 0 31 28 L 31 26 A 1.0001 1.0001 0 0 0 30 25 z M 11 29 L 12 29 A 1.0001 1.0001 0 0 0 11 30 L 11 29 z M 20 29 L 21 29 L 21 30 A 1.0001 1.0001 0 0 0 20 29 z M 27 29 L 28 29 A 1.0001 1.0001 0 0 0 27 30 L 27 29 z M 36 29 L 37 29 L 37 30 A 1.0001 1.0001 0 0 0 36 29 z M 12 30 L 20 30 L 20 36 L 12 36 L 12 30 z M 28 30 L 36 30 L 36 36 L 28 36 L 28 30 z M 11 36 A 1.0001 1.0001 0 0 0 12 37 L 11 37 L 11 36 z M 21 36 L 21 37 L 20 37 A 1.0001 1.0001 0 0 0 21 36 z M 27 36 A 1.0001 1.0001 0 0 0 28 37 L 27 37 L 27 36 z M 37 36 L 37 37 L 36 37 A 1.0001 1.0001 0 0 0 37 36 z "
     id="path4237" />
</svg>
